X:1
T:Varina, CMD
T:Varina, CMD
T:George Frederick Root, 1849
T:Public Domain Courtesy of the Cyber Hymnal™
C:George Frederick Root, 1849
Z:Public Domain
Z:Courtesy of the Cyber Hymnal™
%%score ( 1 2 ) ( 3 4 )
L:1/8
Q:1/4=100
M:3/4
K:D
V:1 treble 
V:2 treble 
V:3 bass 
V:4 bass 
V:1
 [FA]2 | [FA]>[FA] [FA]2 [Fd]2 | [DF]>[DF] [DF]2 [DA]2 | D>D [B,D]2 [CE]2 | [DF]4 [FA]2 | %5
 [FA]>[FA] [FA]2 [Fd]2 | [DF]>[DF] [DF]2 [DA]2 | D>D [B,D]2 [CE]2 | [DF]4 [FA]2 | %9
 [EG]>[DF] [CE]2 [EG]2 | [DF]>[EG] [FA]2 [Fd]2 | [Ge]>[Ec] [CA]2 [EG]2 | [EG]2 [DF]2 [CE]2 | %13
 [DF]>[DG] [DA]2 [DF]D | [DB]>[Gc] [Fd]2 [GB]2 | [DA]>[EG] [DF]2 [CE]2 | D4 |] %17
V:2
 x2 | x6 | x6 | x6 | x6 | x6 | x6 | x6 | x6 | x6 | x6 | x6 | x6 | x6 | x6 | x6 | D4 |] %17
V:3
 [D,A,]2 | [D,D]>[D,D] [D,D]2 [D,A,]2 | [D,A,]>[D,A,] [D,A,]2 [D,F,]2 | %3
 [B,,F,]>[B,,F,] [B,,F,]2 [A,,A,]2 | [D,A,]4 [D,A,]2 | [D,A,]>[D,D] [D,D]2 [D,D]2 | %6
 [D,A,]>[D,A,] [D,A,]2 [D,F,]2 | [B,,F,]>[B,,F,] [B,,F,]2 [A,,A,]2 | [D,A,]4 [D,A,]2 | %9
 [A,,A,]>[A,,A,] [A,,A,]2 [A,,A,]2 | [D,A,]>[D,A,] [D,A,]2 [D,A,]2 | %11
 [A,,A,]>[A,,A,] [A,,A,]2 [A,,A,]2 | [D,A,]4 [A,,A,]2 | [D,A,]>[E,A,] [F,A,]2 [D,A,]D, | %14
 G,>[A,C] B,2 [G,D]2 | F,>[G,B,] A,2 (A,G,) | [D,F,]4 |] %17
V:4
 x2 | x6 | x6 | x6 | x6 | x6 | x6 | x6 | x6 | x6 | x6 | x6 | x6 | x6 | x2 B,2 x2 | x2 A,2 A,,2 | %16
 x4 |] %17

